X: 43
T:John Ryan's
% Nottingham Music Database
S:via PR
M:4/4
L:1/4
K:G
e/2f/2|"G"gg "Em"e/2f/2 g2/3f2/3e2/3|"G"dB dB|"G"gg "Em"e/2f/2 g2/3f2/3e2/3|
"G"dB "D7"AG|"G"gg "Em"e/2f/2 g2/3f2/3e2/3|"G"dB "D7"dg/2a/2|"G"bg "D7"af|"G"g3\
::
A|"G"BG GA/2B/2|"C"cB "D7"AG/2A/2|"G"BG DG|"G"BG/2B/2 "D7"d3/2c/2|\
"G"BG GA/2B/2|"C"cB "D7"AG/2A/2|"G"BG "D7"AF|"G"G3:|


